X: 3372
T: KELVIN GROVE
%R: march
B: James Kerr "Merry Melodies" v.3 p.41 #372
Z: 2016 John Chambers <jc:trillian.mit.edu>
M: 2/4
L: 1/8
K: G
G |\
BdAB | GFED | E2A>B | A2G>A |\
BdAB | GFED | E2(G>A) | G3 ::\
B |\
c>Bcd | e2(B>c) | dBAG | A2G>A |\
BdAB | GFED | E2G>A | G3 :|

%%sep 1 1 500
%%sep 1 1 500

